assets/icons/qvision/monochrome_photos.svg

<svg xmlns="http://www.w3.org/2000/svg" height="24" viewBox="0 0 24 24" width="24"><path d="M0 0h24v24H0V0z" fill="none"/><path d="M-74 29h48v48h-48V29z" fill="none"/><path d="M20 5h-3.2L15 3H9L7.2 5H4c-1.1 0-2 .9-2 2v12c0 1.1.9 2 2 2h16c1.1 0 2-.9 2-2V7c0-1.1-.9-2-2-2zm0 14h-8v-1c-2.8 0-5-2.2-5-5s2.2-5 5-5V7h8v12zm-3-6c0-2.8-2.2-5-5-5v1.8c1.8 0 3.2 1.4 3.2 3.2s-1.4 3.2-3.2 3.2V18c2.8 0 5-2.2 5-5zm-8.2 0c0 1.8 1.4 3.2 3.2 3.2V9.8c-1.8 0-3.2 1.4-3.2 3.2z"/></svg>

<svg width="24" height="24" viewBox="0 0 24 24" fill="none" xmlns="http://www.w3.org/2000/svg">
<g clip-path="url(#clip0_147_3581)">
<path d="M20 5H16.8L15 3H9L7.2 5H4C2.9 5 2 5.9 2 7V19C2 20.1 2.9 21 4 21H20C21.1 21 22 20.1 22 19V7C22 5.9 21.1 5 20 5ZM20 19H12V18C9.2 18 7 15.8 7 13C7 10.2 9.2 8 12 8V7H20V19ZM17 13C17 10.2 14.8 8 12 8V9.8C13.8 9.8 15.2 11.2 15.2 13C15.2 14.8 13.8 16.2 12 16.2V18C14.8 18 17 15.8 17 13ZM8.8 13C8.8 14.8 10.2 16.2 12 16.2V9.8C10.2 9.8 8.8 11.2 8.8 13Z" fill="#323232"/>
</g>
<defs>
<clipPath id="clip0_147_3581">
<rect width="24" height="24" fill="white"/>
</clipPath>
</defs>
</svg>
